docs/public/static/branding/about/illustrations/bureaucracy-dark.svg

<svg width="81" height="94" viewBox="0 0 81 94" fill="none" xmlns="http://www.w3.org/2000/svg">
<path d="M38.3064 79.3006C58.3579 79.3006 74.6128 63.0457 74.6128 42.9942C74.6128 22.9427 58.3579 6.68771 38.3064 6.68771C18.2549 6.68771 2 22.9427 2 42.9942C2 63.0457 18.2549 79.3006 38.3064 79.3006Z" fill="#0059B3" fill-opacity="0.3"/>
<path d="M26.67 36.7246C25.9769 38.4892 21.8809 40.0368 18.8528 38.8475C15.8247 37.6582 14.4327 35.6579 15.1246 33.8934C15.8177 32.1289 18.1987 31.6102 21.2267 32.7984C24.2548 33.9877 26.2044 37.9081 25.5113 39.6726" stroke="#3399FF" stroke-opacity="0.4" stroke-width="1.41444" stroke-miterlimit="10"/>
<path d="M27.6316 35.1982C26.7051 36.852 22.437 37.8267 19.5987 36.2367C16.7604 34.6466 15.6536 32.4742 16.58 30.8205C17.5065 29.1668 19.937 28.977 22.7753 30.5671C25.6136 32.1572 27.0104 36.3074 26.0839 37.9599" stroke="#3399FF" stroke-opacity="0.4" stroke-width="1.41444" stroke-miterlimit="10"/>
<path d="M28.7924 33.8168C27.6491 35.3291 23.2879 35.7133 20.6924 33.752C18.0969 31.7906 17.2966 29.4874 18.4399 27.9763C19.5832 26.464 22.0161 26.6067 24.6116 28.5692C27.2071 30.5306 28.0263 34.8328 26.8829 36.3439" stroke="#3399FF" stroke-opacity="0.4" stroke-width="1.41444" stroke-miterlimit="10"/>
<path d="M30.132 32.6074C28.7941 33.95 24.42 33.7366 22.1168 31.4405C19.8124 29.1432 19.3327 26.754 20.6717 25.4114C22.0095 24.0689 24.4011 24.5415 26.7055 26.8388C29.0098 29.1361 29.235 33.508 27.8971 34.8505" stroke="#3399FF" stroke-opacity="0.4" stroke-width="1.41444" stroke-miterlimit="10"/>
<path d="M31.6219 31.5902C30.1132 32.7383 25.8097 31.932 23.8401 29.3424C21.8705 26.7528 21.7208 24.32 23.2295 23.1731C24.7383 22.025 27.0427 22.8195 29.0123 25.4091C30.9819 27.9987 30.6106 32.3611 29.1018 33.5091" stroke="#3399FF" stroke-opacity="0.4" stroke-width="1.41444" stroke-miterlimit="10"/>
<path d="M33.2369 30.7864C31.5855 31.7175 27.4318 30.3326 25.8335 27.5001C24.2351 24.6665 24.4178 22.236 26.068 21.3049C27.7182 20.3737 29.8941 21.4734 31.4924 24.307C33.0907 27.1406 32.1289 31.4122 30.4776 32.3434" stroke="#3399FF" stroke-opacity="0.4" stroke-width="1.41444" stroke-miterlimit="10"/>
<path d="M34.9469 30.21C33.1848 30.9077 29.2585 28.97 28.0598 25.9454C26.8622 22.9208 27.3738 20.5375 29.1359 19.8397C30.8981 19.1419 32.9031 20.5281 34.1006 23.5526C35.2982 26.5772 33.7635 30.6779 32.0014 31.3757" stroke="#3399FF" stroke-opacity="0.4" stroke-width="1.41444" stroke-miterlimit="10"/>
<path d="M36.7181 29.8717C34.8769 30.3231 31.2512 27.8691 30.4757 24.7101C29.7013 21.55 30.5322 19.2586 32.3734 18.8072C34.2145 18.3557 36.012 20.0024 36.7864 23.1613C37.5608 26.3214 35.4828 30.1746 33.6417 30.6261" stroke="#3399FF" stroke-opacity="0.4" stroke-width="1.41444" stroke-miterlimit="10"/>
<path d="M38.5205 29.7774C36.6357 29.9742 33.3766 27.0487 33.0395 23.8131C32.7024 20.5776 33.8375 18.4205 35.7234 18.2237C37.6081 18.0269 39.1652 19.9034 39.5023 23.1389C39.8394 26.3744 37.2557 29.9094 35.3698 30.1062" stroke="#3399FF" stroke-opacity="0.4" stroke-width="1.41444" stroke-miterlimit="10"/>
<path d="M40.3183 29.9294C38.4241 29.8681 35.5941 26.5265 35.7002 23.2744C35.8062 20.0224 37.2254 18.041 39.1196 18.1023C41.0138 18.1636 42.3009 20.2346 42.1948 23.4866C42.0887 26.7387 39.0465 29.8882 37.1523 29.8257" stroke="#3399FF" stroke-opacity="0.4" stroke-width="1.41444" stroke-miterlimit="10"/>
<path d="M42.0781 30.3255C40.2099 30.006 37.8619 26.3108 38.41 23.1035C38.9581 19.8963 40.6342 18.1259 42.5025 18.4453C44.3707 18.7647 45.3632 20.9913 44.8163 24.1974C44.2682 27.4046 40.8264 30.1098 38.9581 29.7915" stroke="#3399FF" stroke-opacity="0.4" stroke-width="1.41444" stroke-miterlimit="10"/>
<path d="M43.7689 30.9573C41.9619 30.3868 40.1385 26.4051 41.118 23.3039C42.0975 20.2016 43.9987 18.6763 45.8057 19.2468C47.6126 19.8173 48.2939 22.1582 47.3144 25.2606C46.3349 28.3629 42.556 30.5754 40.749 30.0049" stroke="#3399FF" stroke-opacity="0.4" stroke-width="1.41444" stroke-miterlimit="10"/>
<path d="M45.356 31.813C43.6434 31.002 42.3786 26.8094 43.7719 23.8697C45.1651 20.93 47.2561 19.677 48.9688 20.4892C50.6814 21.3013 51.0374 23.7117 49.6441 26.6526C48.2509 29.5923 44.2068 31.2696 42.4941 30.4587" stroke="#3399FF" stroke-opacity="0.4" stroke-width="1.41444" stroke-miterlimit="10"/>
<path d="M46.8128 32.8762C45.2263 31.8389 44.545 27.5143 46.3248 24.7914C48.1047 22.0686 50.3477 21.1127 51.9343 22.15C53.5208 23.1872 53.5444 25.6248 51.7645 28.3476C49.9847 31.0704 45.7496 32.1807 44.1631 31.1447" stroke="#3399FF" stroke-opacity="0.4" stroke-width="1.41444" stroke-miterlimit="10"/>
<path d="M48.1121 34.1292C46.6811 32.8856 46.5951 28.5079 48.7297 26.0527C50.8644 23.5974 53.2159 22.955 54.6456 24.1986C56.0766 25.4421 55.7678 27.8596 53.6331 30.3149C51.4985 32.7701 47.1514 33.2935 45.7217 32.0499" stroke="#3399FF" stroke-opacity="0.4" stroke-width="1.41444" stroke-miterlimit="10"/>
<path d="M49.2275 35.5471C47.9793 34.1209 48.4908 29.7715 50.939 27.6298C53.3883 25.4881 55.8047 25.1722 57.0529 26.5996C58.3012 28.0258 57.6658 30.3797 55.2177 32.5214C52.7683 34.6631 48.3906 34.59 47.1436 33.1638" stroke="#3399FF" stroke-opacity="0.4" stroke-width="1.41444" stroke-miterlimit="10"/>
<path d="M50.1404 37.103C49.0984 35.52 50.1969 31.2814 52.9138 29.4921C55.6319 27.704 58.0695 27.7205 59.1115 29.3035C60.1534 30.8865 59.2034 33.1319 56.4865 34.92C53.7684 36.7081 49.4414 36.0398 48.3994 34.4568" stroke="#3399FF" stroke-opacity="0.4" stroke-width="1.41444" stroke-miterlimit="10"/>
<path d="M50.8327 38.7697C50.0159 37.0594 51.6814 33.0094 54.6163 31.6079C57.5525 30.2064 59.9653 30.5541 60.781 32.2644C61.5978 33.9747 60.3507 36.0705 57.4158 37.472C54.4796 38.8734 50.2846 37.6217 49.4678 35.9114" stroke="#3399FF" stroke-opacity="0.4" stroke-width="1.41444" stroke-miterlimit="10"/>
<path d="M38.3066 6.68771V2C60.9472 2 79.2996 20.3536 79.2996 42.993C79.2996 65.6324 60.946 83.986 38.3066 83.986V91.9976" stroke="#3399FF" stroke-width="2.82889" stroke-linecap="round" stroke-linejoin="round"/>
<path d="M38.3064 79.3006C58.3579 79.3006 74.6128 63.0457 74.6128 42.9942C74.6128 22.9427 58.3579 6.68771 38.3064 6.68771C18.2549 6.68771 2 22.9427 2 42.9942C2 63.0457 18.2549 79.3006 38.3064 79.3006Z" stroke="#3399FF" stroke-width="2.82889" stroke-linecap="round" stroke-linejoin="round"/>
<path fill-rule="evenodd" clip-rule="evenodd" d="M19.2328 40.5472C18.5892 40.2065 17.5991 40.5613 17.5897 41.4454L17.592 41.4465C17.5814 42.3754 17.7075 43.2417 17.9409 44.154C18.1259 44.8773 18.5362 45.9836 18.8926 46.9448L18.8928 46.9452C18.9859 47.1963 19.0754 47.4376 19.1562 47.6595C18.6422 46.8886 17.361 44.0963 17.1158 42.8869C17.0303 42.4668 16.9509 41.9643 16.867 41.4328V41.4328C16.709 40.4329 16.5347 39.3302 16.2731 38.4797C15.7073 36.6433 13.7377 36.8166 13.9828 38.9383C14.0232 39.2872 14.0586 39.6741 14.0958 40.0796L14.0958 40.0796C14.1879 41.0849 14.2905 42.2047 14.5038 43.1462C14.8971 44.8792 15.3401 46.3242 15.6278 47.2628L15.6278 47.2629L15.6278 47.263C15.7031 47.5085 15.7677 47.7194 15.8181 47.8917C15.5446 47.5617 14.5969 45.5744 14.1031 43.2205C13.9486 42.4845 13.8033 41.7157 13.6625 40.9709L13.6625 40.9709C13.2951 39.0271 12.9585 37.2464 12.5707 36.6362C11.3237 34.6737 10.0141 36.4477 10.323 38.7626C10.4668 39.843 10.776 41.4812 11.1121 43.2618C11.1753 43.5968 11.2394 43.9367 11.3036 44.279C11.5649 45.6706 12.1094 47.1663 12.4363 48.0642C12.571 48.4341 12.6687 48.7026 12.6945 48.8205C12.4458 48.507 11.5971 46.9181 11.1504 45.6156C10.7964 44.5833 10.6014 43.4611 10.4333 42.4942C10.2471 41.4231 10.0941 40.5427 9.7949 40.1865C8.97688 39.2129 8.39342 39.8506 8.1789 41.0823C8.02213 41.9852 8.05513 43.8087 8.34392 44.9485C8.83072 46.8674 9.38235 48.7062 10.376 50.8125C11.2305 52.6232 12.158 54.4046 13.1246 55.9283C12.4473 55.7171 11.7396 55.2912 11.0703 54.3757C9.89279 52.7645 8.21432 51.7567 7.62615 52.8929C7.28079 53.5601 8.10941 55.5285 8.98047 56.7473C9.85154 57.9673 11.0173 59.1377 12.6392 60.0665C13.6858 60.6652 14.3891 60.9359 15.1826 61.2411C15.9471 61.5353 16.7953 61.8616 18.1147 62.5446C18.2086 62.5956 18.305 62.6462 18.404 62.6962C19.3805 63.2134 20.3982 63.921 21.2032 64.5217C22.0733 65.4039 22.7195 66.4982 23.1201 67.7387C23.1965 67.9747 23.2785 68.4774 23.3652 69.1884C26.6026 70.965 30.1896 72.1834 33.997 72.7143C32.622 66.8358 31.3841 61.7268 30.896 60.3848C30.6835 59.8005 30.5129 59.2353 30.3424 58.67C29.7552 56.7242 29.1677 54.7773 26.8661 52.0454C25.8088 50.7909 25.1027 50.3659 24.5073 50.0076C23.8043 49.5845 23.2555 49.2542 22.4648 47.7609C22.2387 47.3339 22.032 46.9543 21.8429 46.607L21.8429 46.607L21.8429 46.6069C21.1622 45.357 20.7086 44.5239 20.395 43.3949C20.3688 43.301 20.338 43.1805 20.3027 43.0421C20.0959 42.2323 19.7331 40.8119 19.2328 40.5472Z" fill="url(#paint0_linear_729_1611)"/>
<path fill-rule="evenodd" clip-rule="evenodd" d="M58.6867 37.6429C59.3856 37.3953 60.3946 37.8597 60.3357 38.7143C60.2355 40.1676 58.6925 45.2149 58.6925 45.2149C59.4823 42.6618 60.9887 38.3902 62.0495 35.9361C62.785 34.234 64.8324 34.6466 64.4104 36.6634C64.0208 38.5266 63.5648 40.1921 63.0977 41.898L63.0977 41.898C62.8075 42.958 62.513 44.0336 62.2275 45.1819C62.8585 43.6733 63.4303 41.8084 63.9693 40.0504L63.9693 40.0503C64.7081 37.6408 65.3853 35.4322 66.0689 34.6171C67.5269 32.8785 68.5936 34.8658 68.0397 37.0488C67.7299 38.268 67.1918 40.0285 66.6374 41.8423L66.6372 41.8428C66.407 42.596 66.174 43.3585 65.9534 44.0951C66.0182 44.1363 66.0854 44.1847 66.1537 44.2412L66.1634 44.2119C67.0862 41.4082 68.1135 38.2871 68.6632 37.7914C70.2768 36.3369 70.5456 38.9795 69.8761 41.5762C69.7254 42.1608 69.5774 42.7484 69.4291 43.3372L69.429 43.3373L69.429 43.3374C68.6733 46.3372 67.9093 49.3699 66.7466 52.2164C66.5148 52.7843 66.2225 53.3267 65.8785 53.8342C65.9961 53.7476 66.1122 53.6608 66.2266 53.5752C67.2325 52.8228 68.1167 52.1614 68.8778 52.5523C69.4153 52.8281 69.5674 53.4623 69.5862 53.5448C70.0235 55.4837 66.3743 58.0144 63.5819 59.0694C62.4471 59.4981 60.5644 60.0186 58.0517 59.8555C56.6396 61.1566 55.8532 63.163 55.4676 65.0466C55.3658 65.5438 55.1355 67.2109 54.8342 69.4806C50.7989 72.0003 46.1459 73.6225 41.1543 74.0684C43.3781 67.9646 45.5293 61.8914 45.8789 60.294C46.7277 56.4171 47.343 55.2545 48.0982 53.8278C48.2783 53.4873 48.4665 53.1318 48.6677 52.7208C49.6938 50.6259 51.0236 49.6525 52.31 48.7107C53.6553 47.7258 54.9533 46.7756 55.8071 44.6137C56.5626 42.7019 57.0412 41.4406 57.5928 39.4604C57.7661 38.8404 58.049 37.8692 58.6867 37.6429Z" fill="url(#paint1_linear_729_1611)"/>
<path d="M19.5781 92H57.0338" stroke="#3399FF" stroke-width="2.82889" stroke-linecap="round" stroke-linejoin="round"/>
<defs>
<linearGradient id="paint0_linear_729_1611" x1="35.9528" y1="43.9821" x2="3.64589" y2="48.6657" gradientUnits="userSpaceOnUse">
<stop stop-color="#007FFF"/>
<stop offset="1" stop-color="#3399FF"/>
</linearGradient>
<linearGradient id="paint1_linear_729_1611" x1="41.1543" y1="46.9946" x2="72.5616" y2="49.1576" gradientUnits="userSpaceOnUse">
<stop stop-color="#005BB8"/>
<stop offset="1" stop-color="#0072E6"/>
</linearGradient>
</defs>
</svg>

<svg xmlns="http://www.w3.org/2000/svg" width="81" height="94" fill="none"><path fill="#0059B3" fill-opacity=".3" d="M38.306 79.3c20.052 0 36.307-16.254 36.307-36.306 0-20.051-16.255-36.306-36.307-36.306C18.255 6.688 2 22.943 2 42.994c0 20.052 16.255 36.307 36.306 36.307Z"/><path stroke="#39F" stroke-miterlimit="10" stroke-opacity=".4" stroke-width="1.414" d="M26.67 36.725c-.693 1.764-4.79 3.312-7.817 2.122-3.028-1.189-4.42-3.19-3.728-4.954.693-1.764 3.074-2.283 6.102-1.095 3.028 1.19 4.977 5.11 4.284 6.875"/><path stroke="#39F" stroke-miterlimit="10" stroke-opacity=".4" stroke-width="1.414" d="M27.632 35.198c-.927 1.654-5.195 2.629-8.033 1.039-2.839-1.59-3.945-3.763-3.019-5.417.927-1.653 3.357-1.843 6.195-.253 2.839 1.59 4.235 5.74 3.309 7.393"/><path stroke="#39F" stroke-miterlimit="10" stroke-opacity=".4" stroke-width="1.414" d="M28.792 33.817c-1.143 1.512-5.504 1.896-8.1-.065-2.595-1.961-3.395-4.265-2.252-5.776 1.143-1.512 3.576-1.37 6.172.593 2.595 1.962 3.414 6.264 2.27 7.775"/><path stroke="#39F" stroke-miterlimit="10" stroke-opacity=".4" stroke-width="1.414" d="M30.132 32.607c-1.338 1.343-5.712 1.13-8.015-1.166-2.305-2.298-2.784-4.687-1.445-6.03 1.337-1.342 3.73-.87 6.034 1.428 2.304 2.297 2.529 6.669 1.191 8.011"/><path stroke="#39F" stroke-miterlimit="10" stroke-opacity=".4" stroke-width="1.414" d="M31.622 31.59c-1.509 1.148-5.812.342-7.782-2.248-1.97-2.59-2.12-5.022-.61-6.169 1.508-1.148 3.813-.353 5.782 2.236 1.97 2.59 1.599 6.952.09 8.1"/><path stroke="#39F" stroke-miterlimit="10" stroke-opacity=".4" stroke-width="1.414" d="M33.237 30.786c-1.652.931-5.805-.453-7.404-3.286-1.598-2.834-1.415-5.264.235-6.195s3.826.168 5.424 3.002c1.599 2.834.637 7.105-1.014 8.036"/><path stroke="#39F" stroke-miterlimit="10" stroke-opacity=".4" stroke-width="1.414" d="M34.947 30.21c-1.762.698-5.689-1.24-6.887-4.265-1.198-3.024-.686-5.407 1.076-6.105 1.762-.698 3.767.688 4.965 3.713 1.197 3.024-.337 7.125-2.1 7.823"/><path stroke="#39F" stroke-miterlimit="10" stroke-opacity=".4" stroke-width="1.414" d="M36.718 29.872c-1.841.451-5.467-2.003-6.242-5.162-.775-3.16.056-5.451 1.897-5.903 1.842-.451 3.639 1.195 4.413 4.354.775 3.16-1.303 7.014-3.144 7.465"/><path stroke="#39F" stroke-miterlimit="10" stroke-opacity=".4" stroke-width="1.414" d="M38.52 29.777c-1.884.197-5.143-2.728-5.48-5.964-.338-3.235.797-5.392 2.683-5.59 1.885-.196 3.442 1.68 3.78 4.916.336 3.235-2.247 6.77-4.133 6.967"/><path stroke="#39F" stroke-miterlimit="10" stroke-opacity=".4" stroke-width="1.414" d="M40.318 29.93c-1.894-.062-4.724-3.404-4.618-6.656.106-3.252 1.525-5.233 3.42-5.172 1.894.062 3.18 2.133 3.075 5.385-.106 3.252-3.148 6.401-5.043 6.339"/><path stroke="#39F" stroke-miterlimit="10" stroke-opacity=".4" stroke-width="1.414" d="M42.078 30.326c-1.868-.32-4.216-4.015-3.668-7.223.548-3.207 2.224-4.977 4.093-4.658 1.868.32 2.86 2.546 2.313 5.752-.548 3.208-3.99 5.913-5.858 5.595"/><path stroke="#39F" stroke-miterlimit="10" stroke-opacity=".4" stroke-width="1.414" d="M43.769 30.957c-1.807-.57-3.63-4.552-2.651-7.653.98-3.102 2.88-4.628 4.688-4.057 1.807.57 2.488 2.911 1.508 6.014-.98 3.102-4.758 5.314-6.565 4.744"/><path stroke="#39F" stroke-miterlimit="10" stroke-opacity=".4" stroke-width="1.414" d="M45.356 31.813c-1.713-.811-2.977-5.004-1.584-7.943 1.393-2.94 3.484-4.193 5.197-3.38 1.712.811 2.068 3.222.675 6.163-1.393 2.94-5.437 4.617-7.15 3.806"/><path stroke="#39F" stroke-miterlimit="10" stroke-opacity=".4" stroke-width="1.414" d="M46.813 32.876c-1.587-1.037-2.268-5.362-.488-8.085 1.78-2.722 4.023-3.678 5.61-2.641 1.586 1.037 1.61 3.475-.17 6.198-1.78 2.722-6.015 3.833-7.602 2.797"/><path stroke="#39F" stroke-miterlimit="10" stroke-opacity=".4" stroke-width="1.414" d="M48.112 34.13c-1.43-1.244-1.517-5.622.618-8.077 2.134-2.456 4.486-3.098 5.916-1.854 1.43 1.243 1.122 3.66-1.013 6.116-2.135 2.455-6.482 2.979-7.911 1.735"/><path stroke="#39F" stroke-miterlimit="10" stroke-opacity=".4" stroke-width="1.414" d="M49.227 35.547c-1.248-1.426-.736-5.775 1.712-7.917 2.45-2.142 4.866-2.458 6.114-1.03 1.248 1.426.613 3.78-1.835 5.921-2.45 2.142-6.827 2.069-8.074.643"/><path stroke="#39F" stroke-miterlimit="10" stroke-opacity=".4" stroke-width="1.414" d="M50.14 37.103c-1.042-1.583.057-5.822 2.774-7.61 2.718-1.789 5.155-1.772 6.197-.19 1.042 1.584.092 3.829-2.624 5.617-2.719 1.788-7.046 1.12-8.088-.463"/><path stroke="#39F" stroke-miterlimit="10" stroke-opacity=".4" stroke-width="1.414" d="M50.833 38.77c-.817-1.71.848-5.76 3.783-7.162 2.937-1.402 5.35-1.054 6.165.656.817 1.71-.43 3.806-3.365 5.208-2.936 1.401-7.131.15-7.948-1.56"/><path stroke="#39F" stroke-linecap="round" stroke-linejoin="round" stroke-width="2.829" d="M38.307 6.688V2C60.947 2 79.3 20.354 79.3 42.993c0 22.64-18.354 40.993-40.993 40.993v8.012"/><path stroke="#39F" stroke-linecap="round" stroke-linejoin="round" stroke-width="2.829" d="M38.306 79.3c20.052 0 36.307-16.254 36.307-36.306 0-20.051-16.255-36.306-36.307-36.306C18.255 6.688 2 22.943 2 42.994c0 20.052 16.255 36.307 36.306 36.307Z"/><path fill="url(#a)" fill-rule="evenodd" d="M19.233 40.547c-.644-.34-1.634.014-1.643.898l.002.002c-.01.928.116 1.795.349 2.707.185.723.595 1.83.952 2.79v.001l.263.715c-.514-.771-1.795-3.564-2.04-4.773-.086-.42-.165-.923-.249-1.454-.158-1-.332-2.103-.594-2.953-.566-1.837-2.535-1.663-2.29.458.04.35.076.736.113 1.142.092 1.005.194 2.125.408 3.066.393 1.733.836 3.178 1.124 4.117.075.245.14.456.19.629-.273-.33-1.221-2.318-1.715-4.672-.154-.736-.3-1.504-.44-2.25-.368-1.943-.704-3.724-1.092-4.334-1.247-1.962-2.557-.188-2.248 2.127.144 1.08.453 2.718.79 4.499l.19 1.017c.262 1.392.806 2.887 1.133 3.785.135.37.233.639.258.757-.248-.314-1.097-1.903-1.544-3.205-.354-1.033-.549-2.155-.717-3.122-.186-1.07-.339-1.951-.638-2.307-.818-.974-1.402-.336-1.616.895-.157.903-.124 2.727.165 3.867.487 1.918 1.038 3.757 2.032 5.864.854 1.81 1.782 3.592 2.749 5.115-.678-.21-1.385-.637-2.055-1.552-1.177-1.611-2.856-2.62-3.444-1.483-.345.667.483 2.636 1.354 3.854a11.397 11.397 0 0 0 3.66 3.32c1.046.598 1.75.869 2.543 1.174.764.294 1.612.62 2.932 1.304.094.05.19.101.289.151.977.517 1.994 1.225 2.8 1.826.87.882 1.515 1.976 1.916 3.217.076.236.159.738.245 1.45a30.963 30.963 0 0 0 10.632 3.525c-1.375-5.878-2.613-10.987-3.101-12.33a31.712 31.712 0 0 1-.554-1.714c-.587-1.946-1.174-3.893-3.476-6.625-1.057-1.254-1.763-1.68-2.359-2.037-.703-.424-1.252-.754-2.042-2.247-.226-.427-.433-.807-.622-1.154-.68-1.25-1.134-2.083-1.448-3.212a17.868 17.868 0 0 1-.092-.353c-.207-.81-.57-2.23-1.07-2.495Z" clip-rule="evenodd"/><path fill="url(#b)" fill-rule="evenodd" d="M58.687 37.643c.699-.248 1.708.217 1.649 1.071-.1 1.454-1.643 6.5-1.643 6.5.79-2.552 2.296-6.824 3.357-9.278.735-1.702 2.782-1.29 2.36.727-.39 1.864-.845 3.53-1.312 5.235-.29 1.06-.585 2.136-.87 3.284.63-1.509 1.202-3.374 1.741-5.132.74-2.41 1.416-4.618 2.1-5.433 1.458-1.738 2.525.249 1.97 2.432-.31 1.219-.847 2.98-1.402 4.793-.23.754-.463 1.517-.684 2.253.065.041.132.09.2.146l.01-.03c.923-2.803 1.95-5.924 2.5-6.42 1.614-1.454 1.883 1.189 1.213 3.785-.15.585-.299 1.172-.447 1.761-.756 3-1.52 6.033-2.682 8.88a8.842 8.842 0 0 1-.868 1.617l.348-.259c1.005-.752 1.89-1.414 2.65-1.023.538.276.69.91.71.993.436 1.939-3.213 4.47-6.005 5.524-1.135.43-3.018.95-5.53.786-1.412 1.302-2.199 3.308-2.584 5.192-.102.497-.333 2.164-.634 4.434a30.988 30.988 0 0 1-13.68 4.587c2.224-6.103 4.375-12.177 4.725-13.774.849-3.877 1.464-5.04 2.22-6.466.18-.34.368-.696.569-1.107 1.026-2.095 2.356-3.068 3.642-4.01 1.345-.985 2.643-1.935 3.497-4.097.756-1.912 1.234-3.173 1.786-5.154.173-.62.456-1.59 1.094-1.817Z" clip-rule="evenodd"/><path stroke="#39F" stroke-linecap="round" stroke-linejoin="round" stroke-width="2.829" d="M19.578 92h37.456"/><defs><linearGradient id="a" x1="35.953" x2="3.646" y1="43.982" y2="48.666" gradientUnits="userSpaceOnUse"><stop stop-color="#007FFF"/><stop offset="1" stop-color="#39F"/></linearGradient><linearGradient id="b" x1="41.154" x2="72.562" y1="46.995" y2="49.158" gradientUnits="userSpaceOnUse"><stop stop-color="#005BB8"/><stop offset="1" stop-color="#0072E6"/></linearGradient></defs></svg>
